icon/lg/balena.svg

<?xml version="1.0" encoding="UTF-8"?>
<svg viewBox="0 0 256 282" version="1.1" xmlns="http://www.w3.org/2000/svg" xmlns:xlink="http://www.w3.org/1999/xlink" preserveAspectRatio="xMidYMid" height="1em" width="1em">
  <g>
    <path d="M133.941895,168.587659 L133.941895,250.817554 C137.427235,250.20232 140.782749,248.999528 143.865263,247.260501 L211.907368,208.139659 C221.878434,202.389286 228.027786,191.759507 228.042105,180.249133 L228.042105,102.229764 C228.042105,99.0634484 227.516632,95.9914484 226.607158,93.0474484 L152.656842,135.711869 C137.451789,146.463869 134.164211,156.643238 133.948632,168.587659" fill="#FFC600"/>
    <path d="M253.594947,77.4718695 L226.607158,93.0474484 C227.516632,95.9847116 228.035368,99.0634484 228.035368,102.216291 L228.035368,180.255869 C228.035368,191.728712 221.857684,202.42008 211.907368,208.146396 L143.865263,247.260501 C140.784936,249.00045 137.431861,250.205461 133.948632,250.824291 L133.948632,281.881133 C138.759872,281.18921 143.398659,279.601054 147.624421,277.199027 L235.984842,226.389764 C248.308584,219.274673 255.909547,206.13407 255.932632,191.903869 L255.932632,90.5682905 C255.915818,86.1005511 255.124888,81.6695189 253.594947,77.4718695" fill="#F6EB61"/>
    <path d="M127.744,142.745133 C131.765895,136.176712 137.761684,130.511027 146.378105,125.087869 L220.820211,82.1337642 C218.369752,78.9927133 215.345258,76.3454238 211.907368,74.332501 L143.865263,35.2183958 C133.917746,29.5190028 121.693468,29.5241315 111.750737,35.2318695 L43.9915789,74.3257642 C40.4210526,76.380501 37.4298947,79.1493431 34.9642105,82.3021852 L109.056,125.054185 C117.719579,130.511027 123.722105,136.176712 127.744,142.745133" fill="#439879"/>
    <path d="M43.9915789,74.3257642 L111.750737,35.2318695 C121.692271,29.5220445 133.91655,29.5143515 143.865263,35.2116589 L211.907368,74.3392379 C215.410526,76.3535537 218.374737,79.0550274 220.813474,82.1337642 L247.760842,66.5918695 C244.592282,62.3207216 240.582256,58.7440257 235.978105,56.0823958 L147.617684,5.27313262 C135.315731,-1.76731796 120.203123,-1.75706169 107.910737,5.30007998 L19.9073684,56.0689221 C15.2612482,58.786244 11.2195241,62.4244835 8.03031579,66.7602905 L34.9574737,82.2954484 C37.425966,79.0811451 40.4910257,76.3729132 43.9848421,74.3190274" fill="#28CDFB"/>
    <path d="M111.750737,247.240291 L43.9915789,208.146396 C34.0417992,202.392296 27.9074983,191.776619 27.8905263,180.282817 L27.8905263,102.19608 C27.8905263,99.12408 28.3957895,96.1329221 29.2446316,93.2630274 L2.24336842,77.6807116 C0.777410831,81.8062005 0.0189490093,86.1497041 0,90.5278695 L0,191.951027 C0.0212057474,206.162352 7.60552841,219.287978 19.9073684,226.403238 L107.904,277.178817 C112.080842,279.577133 116.661895,281.119869 121.539368,281.867659 L121.539368,250.790606 C118.100612,250.163993 114.791639,248.963835 111.750737,247.240291" fill="#FDD757"/>
    <path d="M102.716632,135.631027 L29.2446316,93.2562905 C28.3957895,96.1261852 27.8972632,99.1173431 27.8972632,102.189343 L27.8972632,180.27608 C27.8972632,191.742185 34.0682105,202.42008 43.9983158,208.139659 L111.744,247.240291 C114.822737,249.005343 118.137263,250.137133 121.532632,250.777133 L121.532632,168.567448 C121.317053,156.643238 118.036211,146.463869 102.709895,135.631027" fill="#EC8B00"/>
  </g>
</svg>

<svg width="256" height="282" xmlns="http://www.w3.org/2000/svg" preserveAspectRatio="xMidYMid"><path d="M133.942 168.588v82.23a31.252 31.252 0 0 0 9.923-3.557l68.042-39.121a32.243 32.243 0 0 0 16.135-27.89v-78.02c0-3.167-.525-6.239-1.435-9.183l-73.95 42.665c-15.205 10.752-18.493 20.931-18.708 32.876" fill="#FFC600"/><path d="m253.595 77.472-26.988 15.575c.91 2.938 1.428 6.016 1.428 9.17v78.039c0 11.473-6.177 22.164-16.128 27.89l-68.042 39.115a31.293 31.293 0 0 1-9.916 3.563v31.057a38.872 38.872 0 0 0 13.675-4.682l88.36-50.81a39.896 39.896 0 0 0 19.949-34.485V90.568a38.67 38.67 0 0 0-2.338-13.096" fill="#F6EB61"/><path d="M127.744 142.745c4.022-6.568 10.018-12.234 18.634-17.657l74.442-42.954a31.475 31.475 0 0 0-8.913-7.801l-68.042-39.115a32.276 32.276 0 0 0-32.114.014L43.99 74.326c-3.57 2.055-6.561 4.823-9.027 7.976l74.092 42.752c8.664 5.457 14.666 11.123 18.688 17.691" fill="#439879"/><path d="m43.992 74.326 67.759-39.094a32.276 32.276 0 0 1 32.114-.02l68.042 39.127c3.504 2.015 6.468 4.716 8.906 7.795l26.948-15.542a38.932 38.932 0 0 0-11.783-10.51l-88.36-50.809a39.923 39.923 0 0 0-39.707.027L19.907 56.07A39.498 39.498 0 0 0 8.03 66.76l26.927 15.535a31.528 31.528 0 0 1 9.028-7.976" fill="#28CDFB"/><path d="m111.75 247.24-67.758-39.094a32.243 32.243 0 0 1-16.101-27.863v-78.087c0-3.072.505-6.063 1.354-8.933L2.243 77.681A38.872 38.872 0 0 0 0 90.528V191.95a39.869 39.869 0 0 0 19.907 34.452l87.997 50.776c4.177 2.398 8.758 3.94 13.635 4.689V250.79a31.192 31.192 0 0 1-9.788-3.55" fill="#FDD757"/><path d="M102.717 135.631 29.245 93.256c-.85 2.87-1.348 5.861-1.348 8.933v78.087c0 11.466 6.171 22.144 16.101 27.864l67.746 39.1c3.079 1.765 6.393 2.897 9.789 3.537v-82.21c-.216-11.924-3.497-22.103-18.823-32.936" fill="#EC8B00"/></svg>
